X:1
T:Title
%%score { ( 1 3 4 ) | ( 2 5 ) }
L:1/8
Q:1/4=100
M:4/4
K:Ab
V:1 treble nm="Grand Piano"
V:3 treble 
V:4 treble 
V:2 treble 
V:5 treble 
V:1
 c2 c>d ecBA | [Fd]2 [DF]2 [FA]4 | EAAA AB[Ec][EA] | B2 B2 B4 | c2 c>d ecBA | [Fd]2 [DF]2 [FA]4 | %6
w: W.~A.~Ogden * * * * * *||||||
 EAAB cAe[Ec] | [DB]2 [DB]2 [CA]4 | [Fd]6 z2 | [Ec]4 [CA]2[K:bass] z2 | B2 E2 B2 (3G,A,B, | %11
w: |||||
 c2 E2 c4 | [Fd]6[K:bass][K:treble] z2 | [Ec]4 [CA]2[K:bass] z2 | B2 E2 c3 B | [CA]6 z2 |] %16
w: |||||
V:2
 [A,E]2 [A,E]>[A,B,E] [A,CA][A,E][K:bass][A,D][A,C] | [D,A,]2 [D,A,]2 [D,A,]4 | %2
 [A,C][A,C][A,C][A,C] [A,C][A,D][A,,A,][C,A,] | [E,G,E]2 [F,A,=D]2[K:treble] [G,B,E]4 | %4
 [A,E]2 [A,E]>[A,B,E] [A,CA][K:bass][A,E][A,D][A,C] | [D,A,]2 [D,A,]2 [D,A,]4 | %6
 [A,C][A,C][A,C][A,D] [A,E][A,CE][A,,CE][C,A,] | [E,G,]2 [E,G,]2 [A,,A,]4 | %8
 [D,A,]>D, D,>D, D,[D,A,][K:treble] (3DFF | [A,,A,]>A,, A,,>A,, A,,A,, z2 | %10
 [E,G,E]2 [E,G,]2 [E,G,E]2 (3E,F,G, | [A,E]2 [A,C]2 [A,E]4 | %12
 [D,A,]>D, D,>D, .D,>[K:treble]F (3DFF | [A,,A,]>A,, G,,>A,, A,,A,, z2 | %14
 [E,G,E]2 [E,G,]2 [E,G,E]3 [E,G,D] | [A,,A,]6 z2 |] %16
V:3
 x8 | x8 | x8 | x8 | x8 | x8 | x8 | x8 | z z/ A,/ A,>A, A,[Fd] (3FAd | %9
 z z/ A,/ A,>A, A,[K:bass]A,A,,C, | x8 | x8 | z z/[K:bass] A,/ A,>A, .A,>[K:treble]d (3FAd | %13
 z z/ A,/ A,>A, A,[K:bass]A,A,,C, | x8 | x8 |] %16
V:4
 x8 | x8 | x8 | x8 | x8 | x8 | x8 | x8 | x8 | x5[K:bass] x3 | x8 | x8 | %12
 z4[K:bass] z A,[K:treble] z2 | x5[K:bass] x3 | x8 | x8 |] %16
V:5
 x6[K:bass] x2 | x8 | x8 | x4[K:treble] x4 | x5[K:bass] x3 | x8 | x8 | x8 | x6[K:treble] x2 | x8 | %10
 x8 | x8 | z4 z D,[K:treble] z2 | x8 | x8 | x8 |] %16

